X: 45
T:Festival Reel
R:Reel
C:Emile Benoit
M:C|
L:1/8
Z:Gerry Strong
K:G
ef|:eAAA BAGE|GEDE GABc|dBcA BGEG|cdBG A2 ef|eAAA BAGE|GEDE GABc|dBcA BG
EG|1cdBG A2 ef:|2cdBG A4||
|:eaag a2 ga|bage aged|g2 dc BGBd|gdBd cBAG|eaag a2 ga|bage aged|g2 dc B
GBd|egdB A4:|
<end>
<start>
